static/img/kroki/587b850c5b2d3bd2f6eb3a1b1832b708.svg

<?xml version="1.0" encoding="us-ascii" standalone="no"?><svg xmlns="http://www.w3.org/2000/svg" xmlns:xlink="http://www.w3.org/1999/xlink" contentStyleType="text/css" height="645px" preserveAspectRatio="none" style="width:1159px;height:645px;" version="1.1" viewBox="0 0 1159 645" width="1159px" zoomAndPan="magnify"><defs/><g><!--class aws_s3_bucket--><g id="elem_aws_s3_bucket"><rect codeLine="23" fill="#3D176E" height="39.7891" id="aws_s3_bucket" rx="2.5" ry="2.5" style="stroke:#000D19;stroke-width:0.5;" width="168" x="7" y="599.55"/><ellipse cx="22" cy="619.4445" fill="#ADD1B2" rx="11" ry="11" style="stroke:#181818;stroke-width:1.0;"/><path d="M24.9688,625.0852 Q24.3906,625.382 23.75,625.5227 Q23.1094,625.6789 22.4063,625.6789 Q19.9063,625.6789 18.5781,624.0383 Q17.2656,622.382 17.2656,619.257 Q17.2656,616.132 18.5781,614.4758 Q19.9063,612.8195 22.4063,612.8195 Q23.1094,612.8195 23.75,612.9758 Q24.4063,613.132 24.9688,613.4289 L24.9688,616.1477 Q24.3438,615.5695 23.75,615.3039 Q23.1563,615.0227 22.5313,615.0227 Q21.1875,615.0227 20.5,616.1008 Q19.8125,617.1633 19.8125,619.257 Q19.8125,621.3508 20.5,622.4289 Q21.1875,623.4914 22.5313,623.4914 Q23.1563,623.4914 23.75,623.2258 Q24.3438,622.9445 24.9688,622.3664 L24.9688,625.0852 Z " fill="#000000"/><text fill="#D9B8FF" font-family="Helvetica" font-size="17" lengthAdjust="spacing" textLength="126" x="41" y="625.3298">aws_s3_bucket</text></g><!--class azure_storage_blob_container--><g id="elem_azure_storage_blob_container"><rect codeLine="26" fill="#3D176E" height="39.7891" id="azure_storage_blob_container" rx="2.5" ry="2.5" style="stroke:#000D19;stroke-width:0.5;" width="291" x="210.5" y="599.55"/><ellipse cx="225.5" cy="619.4445" fill="#ADD1B2" rx="11" ry="11" style="stroke:#181818;stroke-width:1.0;"/><path d="M228.4688,625.0852 Q227.8906,625.382 227.25,625.5227 Q226.6094,625.6789 225.9063,625.6789 Q223.4063,625.6789 222.0781,624.0383 Q220.7656,622.382 220.7656,619.257 Q220.7656,616.132 222.0781,614.4758 Q223.4063,612.8195 225.9063,612.8195 Q226.6094,612.8195 227.25,612.9758 Q227.9063,613.132 228.4688,613.4289 L228.4688,616.1477 Q227.8438,615.5695 227.25,615.3039 Q226.6563,615.0227 226.0313,615.0227 Q224.6875,615.0227 224,616.1008 Q223.3125,617.1633 223.3125,619.257 Q223.3125,621.3508 224,622.4289 Q224.6875,623.4914 226.0313,623.4914 Q226.6563,623.4914 227.25,623.2258 Q227.8438,622.9445 228.4688,622.3664 L228.4688,625.0852 Z " fill="#000000"/><text fill="#D9B8FF" font-family="Helvetica" font-size="17" lengthAdjust="spacing" textLength="249" x="244.5" y="625.3298">azure_storage_blob_container</text></g><!--class bucket--><g id="elem_bucket"><rect codeLine="29" fill="#3D176E" height="39.7891" id="bucket" rx="2.5" ry="2.5" style="stroke:#000D19;stroke-width:0.5;" width="98" x="587" y="438.76"/><ellipse cx="602" cy="458.6545" fill="#ADD1B2" rx="11" ry="11" style="stroke:#181818;stroke-width:1.0;"/><path d="M604.9688,464.2952 Q604.3906,464.592 603.75,464.7327 Q603.1094,464.8889 602.4063,464.8889 Q599.9063,464.8889 598.5781,463.2483 Q597.2656,461.592 597.2656,458.467 Q597.2656,455.342 598.5781,453.6858 Q599.9063,452.0295 602.4063,452.0295 Q603.1094,452.0295 603.75,452.1858 Q604.4063,452.342 604.9688,452.6389 L604.9688,455.3577 Q604.3438,454.7795 603.75,454.5139 Q603.1563,454.2327 602.5313,454.2327 Q601.1875,454.2327 600.5,455.3108 Q599.8125,456.3733 599.8125,458.467 Q599.8125,460.5608 600.5,461.6389 Q601.1875,462.7014 602.5313,462.7014 Q603.1563,462.7014 603.75,462.4358 Q604.3438,462.1545 604.9688,461.5764 L604.9688,464.2952 Z " fill="#000000"/><text fill="#D9B8FF" font-family="Helvetica" font-size="17" lengthAdjust="spacing" textLength="56" x="621" y="464.5398">bucket</text></g><!--class digitalocean_space--><g id="elem_digitalocean_space"><rect codeLine="32" fill="#3D176E" height="39.7891" id="digitalocean_space" rx="2.5" ry="2.5" style="stroke:#000D19;stroke-width:0.5;" width="198" x="537" y="599.55"/><ellipse cx="552" cy="619.4445" fill="#ADD1B2" rx="11" ry="11" style="stroke:#181818;stroke-width:1.0;"/><path d="M554.9688,625.0852 Q554.3906,625.382 553.75,625.5227 Q553.1094,625.6789 552.4063,625.6789 Q549.9063,625.6789 548.5781,624.0383 Q547.2656,622.382 547.2656,619.257 Q547.2656,616.132 548.5781,614.4758 Q549.9063,612.8195 552.4063,612.8195 Q553.1094,612.8195 553.75,612.9758 Q554.4063,613.132 554.9688,613.4289 L554.9688,616.1477 Q554.3438,615.5695 553.75,615.3039 Q553.1563,615.0227 552.5313,615.0227 Q551.1875,615.0227 550.5,616.1008 Q549.8125,617.1633 549.8125,619.257 Q549.8125,621.3508 550.5,622.4289 Q551.1875,623.4914 552.5313,623.4914 Q553.1563,623.4914 553.75,623.2258 Q554.3438,622.9445 554.9688,622.3664 L554.9688,625.0852 Z " fill="#000000"/><text fill="#D9B8FF" font-family="Helvetica" font-size="17" lengthAdjust="spacing" textLength="156" x="571" y="625.3298">digitalocean_space</text></g><!--class gcp_backend_bucket--><g id="elem_gcp_backend_bucket"><rect codeLine="35" fill="#3D176E" height="39.7891" id="gcp_backend_bucket" rx="2.5" ry="2.5" style="stroke:#000D19;stroke-width:0.5;" width="213" x="769.5" y="599.55"/><ellipse cx="784.5" cy="619.4445" fill="#ADD1B2" rx="11" ry="11" style="stroke:#181818;stroke-width:1.0;"/><path d="M787.4688,625.0852 Q786.8906,625.382 786.25,625.5227 Q785.6094,625.6789 784.9063,625.6789 Q782.4063,625.6789 781.0781,624.0383 Q779.7656,622.382 779.7656,619.257 Q779.7656,616.132 781.0781,614.4758 Q782.4063,612.8195 784.9063,612.8195 Q785.6094,612.8195 786.25,612.9758 Q786.9063,613.132 787.4688,613.4289 L787.4688,616.1477 Q786.8438,615.5695 786.25,615.3039 Q785.6563,615.0227 785.0313,615.0227 Q783.6875,615.0227 783,616.1008 Q782.3125,617.1633 782.3125,619.257 Q782.3125,621.3508 783,622.4289 Q783.6875,623.4914 785.0313,623.4914 Q785.6563,623.4914 786.25,623.2258 Q786.8438,622.9445 787.4688,622.3664 L787.4688,625.0852 Z " fill="#000000"/><text fill="#D9B8FF" font-family="Helvetica" font-size="17" lengthAdjust="spacing" textLength="171" x="803.5" y="625.3298">gcp_backend_bucket</text></g><!--class gcp_bucket--><g id="elem_gcp_bucket"><rect codeLine="38" fill="#3D176E" height="39.7891" id="gcp_bucket" rx="2.5" ry="2.5" style="stroke:#000D19;stroke-width:0.5;" width="135" x="1017.5" y="599.55"/><ellipse cx="1032.5" cy="619.4445" fill="#ADD1B2" rx="11" ry="11" style="stroke:#181818;stroke-width:1.0;"/><path d="M1035.4688,625.0852 Q1034.8906,625.382 1034.25,625.5227 Q1033.6094,625.6789 1032.9063,625.6789 Q1030.4063,625.6789 1029.0781,624.0383 Q1027.7656,622.382 1027.7656,619.257 Q1027.7656,616.132 1029.0781,614.4758 Q1030.4063,612.8195 1032.9063,612.8195 Q1033.6094,612.8195 1034.25,612.9758 Q1034.9063,613.132 1035.4688,613.4289 L1035.4688,616.1477 Q1034.8438,615.5695 1034.25,615.3039 Q1033.6563,615.0227 1033.0313,615.0227 Q1031.6875,615.0227 1031,616.1008 Q1030.3125,617.1633 1030.3125,619.257 Q1030.3125,621.3508 1031,622.4289 Q1031.6875,623.4914 1033.0313,623.4914 Q1033.6563,623.4914 1034.25,623.2258 Q1034.8438,622.9445 1035.4688,622.3664 L1035.4688,625.0852 Z " fill="#000000"/><text fill="#D9B8FF" font-family="Helvetica" font-size="17" lengthAdjust="spacing" textLength="93" x="1051.5" y="625.3298">gcp_bucket</text></g><!--class resource--><g id="elem_resource"><rect codeLine="41" fill="#3D176E" height="310.7578" id="resource" rx="2.5" ry="2.5" style="stroke:#000D19;stroke-width:0.5;" width="227" x="522.5" y="7"/><ellipse cx="591.25" cy="26.8945" fill="#ADD1B2" rx="11" ry="11" style="stroke:#181818;stroke-width:1.0;"/><path d="M594.2188,32.5352 Q593.6406,32.832 593,32.9727 Q592.3594,33.1289 591.6563,33.1289 Q589.1563,33.1289 587.8281,31.4883 Q586.5156,29.832 586.5156,26.707 Q586.5156,23.582 587.8281,21.9258 Q589.1563,20.2695 591.6563,20.2695 Q592.3594,20.2695 593,20.4258 Q593.6563,20.582 594.2188,20.8789 L594.2188,23.5977 Q593.5938,23.0195 593,22.7539 Q592.4063,22.4727 591.7813,22.4727 Q590.4375,22.4727 589.75,23.5508 Q589.0625,24.6133 589.0625,26.707 Q589.0625,28.8008 589.75,29.8789 Q590.4375,30.9414 591.7813,30.9414 Q592.4063,30.9414 593,30.6758 Q593.5938,30.3945 594.2188,29.8164 L594.2188,32.5352 Z " fill="#000000"/><text fill="#D9B8FF" font-family="Helvetica" font-size="17" lengthAdjust="spacing" textLength="71" x="616.75" y="32.7798">resource</text><line style="stroke:#000D19;stroke-width:0.5;" x1="523.5" x2="748.5" y1="46.7891" y2="46.7891"/><text fill="#D9B8FF" font-family="sans-serif" font-size="14" font-weight="bold" lengthAdjust="spacing" textLength="29" x="533.5" y="68.7842">age</text><text fill="#D9B8FF" font-family="sans-serif" font-size="14" lengthAdjust="spacing" textLength="66" x="562.5" y="68.7842">: duration</text><text fill="#D9B8FF" font-family="sans-serif" font-size="14" font-weight="bold" lengthAdjust="spacing" textLength="43" x="533.5" y="95.0811">atime</text><text fill="#D9B8FF" font-family="sans-serif" font-size="14" lengthAdjust="spacing" textLength="70" x="576.5" y="95.0811">: datetime</text><text fill="#D9B8FF" font-family="sans-serif" font-size="14" font-weight="bold" lengthAdjust="spacing" textLength="43" x="533.5" y="121.3779">ctime</text><text fill="#D9B8FF" font-family="sans-serif" font-size="14" lengthAdjust="spacing" textLength="70" x="576.5" y="121.3779">: datetime</text><text fill="#D9B8FF" font-family="sans-serif" font-size="14" font-weight="bold" lengthAdjust="spacing" textLength="14" x="533.5" y="147.6748">id</text><text fill="#D9B8FF" font-family="sans-serif" font-size="14" lengthAdjust="spacing" textLength="48" x="547.5" y="147.6748">: string</text><text fill="#D9B8FF" font-family="sans-serif" font-size="14" font-weight="bold" lengthAdjust="spacing" textLength="33" x="533.5" y="173.9717">kind</text><text fill="#D9B8FF" font-family="sans-serif" font-size="14" lengthAdjust="spacing" textLength="48" x="566.5" y="173.9717">: string</text><text fill="#D9B8FF" font-family="sans-serif" font-size="14" font-weight="bold" lengthAdjust="spacing" textLength="90" x="533.5" y="200.2686">last_access</text><text fill="#D9B8FF" font-family="sans-serif" font-size="14" lengthAdjust="spacing" textLength="66" x="623.5" y="200.2686">: duration</text><text fill="#D9B8FF" font-family="sans-serif" font-size="14" font-weight="bold" lengthAdjust="spacing" textLength="90" x="533.5" y="226.5654">last_update</text><text fill="#D9B8FF" font-family="sans-serif" font-size="14" lengthAdjust="spacing" textLength="66" x="623.5" y="226.5654">: duration</text><text fill="#D9B8FF" font-family="sans-serif" font-size="14" font-weight="bold" lengthAdjust="spacing" textLength="48" x="533.5" y="252.8623">mtime</text><text fill="#D9B8FF" font-family="sans-serif" font-size="14" lengthAdjust="spacing" textLength="70" x="581.5" y="252.8623">: datetime</text><text fill="#D9B8FF" font-family="sans-serif" font-size="14" font-weight="bold" lengthAdjust="spacing" textLength="43" x="533.5" y="279.1592">name</text><text fill="#D9B8FF" font-family="sans-serif" font-size="14" lengthAdjust="spacing" textLength="48" x="576.5" y="279.1592">: string</text><text fill="#D9B8FF" font-family="sans-serif" font-size="14" font-weight="bold" lengthAdjust="spacing" textLength="34" x="533.5" y="305.4561">tags</text><text fill="#D9B8FF" font-family="sans-serif" font-size="14" lengthAdjust="spacing" textLength="171" x="567.5" y="305.4561">: dictionary[string, string]</text></g><!--reverse link bucket to aws_s3_bucket--><g id="link_bucket_aws_s3_bucket"><path codeLine="53" d="M569.3886,479.0653 C471.1286,507.6953 268.19,566.82 157.37,599.11 " fill="none" id="bucket-backto-aws_s3_bucket" style="stroke:#FFAF37;stroke-width:2.0;"/><polygon fill="none" points="586.67,474.03,567.7102,473.3048,571.067,484.8257,586.67,474.03" style="stroke:#FFAF37;stroke-width:2.0;"/></g><!--reverse link bucket to azure_storage_blob_container--><g id="link_bucket_azure_storage_blob_container"><path codeLine="54" d="M586.2921,487.8485 C532.3621,518.4285 443.59,568.77 389.82,599.27 " fill="none" id="bucket-backto-azure_storage_blob_container" style="stroke:#FFAF37;stroke-width:2.0;"/><polygon fill="none" points="601.95,478.97,583.3325,482.6292,589.2516,493.0679,601.95,478.97" style="stroke:#FFAF37;stroke-width:2.0;"/></g><!--reverse link resource to bucket--><g id="link_resource_bucket"><path codeLine="55" d="M636,335.85 C636,384.14 636,413.37 636,438.68 " fill="none" id="resource-backto-bucket" style="stroke:#FFAF37;stroke-width:2.0;"/><polygon fill="none" points="636,317.85,630,335.85,642,335.85,636,317.85" style="stroke:#FFAF37;stroke-width:2.0;"/></g><!--reverse link bucket to digitalocean_space--><g id="link_bucket_digitalocean_space"><path codeLine="56" d="M636,496.81 C636,527.33 636,568.66 636,599.22 " fill="none" id="bucket-backto-digitalocean_space" style="stroke:#FFAF37;stroke-width:2.0;"/><polygon fill="none" points="636,478.81,630,496.81,642,496.81,636,478.81" style="stroke:#FFAF37;stroke-width:2.0;"/></g><!--reverse link bucket to gcp_backend_bucket--><g id="link_bucket_gcp_backend_bucket"><path codeLine="57" d="M679.9619,488.742 C726.0919,519.262 800.75,568.66 846.95,599.22 " fill="none" id="bucket-backto-gcp_backend_bucket" style="stroke:#FFAF37;stroke-width:2.0;"/><polygon fill="none" points="664.95,478.81,676.6512,493.7459,683.2725,483.738,664.95,478.81" style="stroke:#FFAF37;stroke-width:2.0;"/></g><!--reverse link bucket to gcp_bucket--><g id="link_bucket_gcp_bucket"><path codeLine="58" d="M702.31,483.1016 C786.94,513.0316 942.2,567.94 1030.35,599.12 " fill="none" id="bucket-backto-gcp_bucket" style="stroke:#FFAF37;stroke-width:2.0;"/><polygon fill="none" points="685.34,477.1,700.3095,488.7582,704.3105,477.4449,685.34,477.1" style="stroke:#FFAF37;stroke-width:2.0;"/></g><!--SRC=[XPD1Rzim38Nl_XK2UWiM85dGfHbswG8KxQKOsjs6mQ0bsX5YImP5BqYx_VT9SHeebflUxFS-aO-KlT4A1JOjxqM3JO7aChVLfWM2HjmIsTtQrfR4LLb2kLWEpJjh-4FW4HeKzrZ_GTOIXiJFZPPRWyw9pv7r7UIs8jiPrPTd0kEyXOOZQbs3SxVCf8kECGgZLiLDMGx9OT6hXPells22ML98HsGscwdvQeXysEhYt2VYMR-WcCTBUxICISoanO6wc38GKSXaq3V_tOm_G2bjAd4TQKzz9Z98P_hp1fJT1Rg4siLj72EXvNsBwsGgNDseSZaAFxm7PpAiJi3EvMwH5vtS8elNBFltPhnqXBbZIr1XNjIsoAMV4dI8777fIQKhpL1RYM1o_wL9ZDrAjddXCw5H8rqFRg8IEjlHeSvaukDC9b-5wWXOMnCKrasl0MDuzfeSqRGAWlFVkAdygz_MkU1xSGvI-ZzeqE7WT6seDN2QaJu6UkbKcA7gAsePZW7jV_NUfoFpsuzw7FlRt-bqUduj0-l2nMIdJVNisFdqUixzz896_5x_3m00]--></g></svg>

<svg xmlns="http://www.w3.org/2000/svg" width="1159" height="645" viewBox="0 0 1159 645"><rect width="168" height="39.789" x="7" y="599.55" fill="#3D176E" rx="2.5" ry="2.5" style="stroke:#000d19;stroke-width:.5"/><circle cx="22" cy="619.444" r="11" fill="#ADD1B2" style="stroke:#181818;stroke-width:1"/><path d="M24.969 625.085q-.578.297-1.219.438-.64.156-1.344.156-2.5 0-3.828-1.64-1.312-1.657-1.312-4.782t1.312-4.781q1.328-1.657 3.828-1.657.703 0 1.344.157.656.156 1.219.453v2.719q-.625-.579-1.219-.844-.594-.281-1.219-.281-1.343 0-2.031 1.078-.687 1.062-.687 3.156t.687 3.172q.688 1.062 2.031 1.062.625 0 1.219-.265.594-.282 1.219-.86z"/><text x="41" y="625.33" fill="#D9B8FF" font-family="Helvetica" font-size="17" textLength="126">aws_s3_bucket</text><rect width="291" height="39.789" x="210.5" y="599.55" fill="#3D176E" rx="2.5" ry="2.5" style="stroke:#000d19;stroke-width:.5"/><circle cx="225.5" cy="619.444" r="11" fill="#ADD1B2" style="stroke:#181818;stroke-width:1"/><path d="M228.469 625.085q-.578.297-1.219.438-.64.156-1.344.156-2.5 0-3.828-1.64-1.312-1.657-1.312-4.782t1.312-4.781q1.328-1.657 3.828-1.657.703 0 1.344.157.656.156 1.219.453v2.719q-.625-.579-1.219-.844-.594-.281-1.219-.281-1.344 0-2.031 1.078-.687 1.062-.687 3.156t.687 3.172q.688 1.062 2.031 1.062.625 0 1.219-.265.594-.282 1.219-.86z"/><text x="244.5" y="625.33" fill="#D9B8FF" font-family="Helvetica" font-size="17" textLength="249">azure_storage_blob_container</text><rect width="98" height="39.789" x="587" y="438.76" fill="#3D176E" rx="2.5" ry="2.5" style="stroke:#000d19;stroke-width:.5"/><circle cx="602" cy="458.654" r="11" fill="#ADD1B2" style="stroke:#181818;stroke-width:1"/><path d="M604.969 464.295q-.578.297-1.219.438-.64.156-1.344.156-2.5 0-3.828-1.64-1.312-1.657-1.312-4.782t1.312-4.781q1.328-1.656 3.828-1.656.703 0 1.344.156.656.156 1.219.453v2.719q-.625-.579-1.219-.844-.594-.281-1.219-.281-1.343 0-2.031 1.078-.687 1.062-.687 3.156t.687 3.172q.688 1.062 2.031 1.062.625 0 1.219-.265.594-.281 1.219-.86z"/><text x="621" y="464.54" fill="#D9B8FF" font-family="Helvetica" font-size="17" textLength="56">bucket</text><rect width="198" height="39.789" x="537" y="599.55" fill="#3D176E" rx="2.5" ry="2.5" style="stroke:#000d19;stroke-width:.5"/><circle cx="552" cy="619.444" r="11" fill="#ADD1B2" style="stroke:#181818;stroke-width:1"/><path d="M554.969 625.085q-.578.297-1.219.438-.64.156-1.344.156-2.5 0-3.828-1.64-1.312-1.657-1.312-4.782t1.312-4.781q1.328-1.657 3.828-1.657.703 0 1.344.157.656.156 1.219.453v2.719q-.625-.579-1.219-.844-.594-.281-1.219-.281-1.343 0-2.031 1.078-.687 1.062-.687 3.156t.687 3.172q.688 1.062 2.031 1.062.625 0 1.219-.265.594-.282 1.219-.86z"/><text x="571" y="625.33" fill="#D9B8FF" font-family="Helvetica" font-size="17" textLength="156">digitalocean_space</text><rect width="213" height="39.789" x="769.5" y="599.55" fill="#3D176E" rx="2.5" ry="2.5" style="stroke:#000d19;stroke-width:.5"/><circle cx="784.5" cy="619.444" r="11" fill="#ADD1B2" style="stroke:#181818;stroke-width:1"/><path d="M787.469 625.085q-.578.297-1.219.438-.64.156-1.344.156-2.5 0-3.828-1.64-1.312-1.657-1.312-4.782t1.312-4.781q1.328-1.657 3.828-1.657.703 0 1.344.157.656.156 1.219.453v2.719q-.625-.579-1.219-.844-.594-.281-1.219-.281-1.343 0-2.031 1.078-.687 1.062-.687 3.156t.687 3.172q.688 1.062 2.031 1.062.625 0 1.219-.265.594-.282 1.219-.86z"/><text x="803.5" y="625.33" fill="#D9B8FF" font-family="Helvetica" font-size="17" textLength="171">gcp_backend_bucket</text><rect width="135" height="39.789" x="1017.5" y="599.55" fill="#3D176E" rx="2.5" ry="2.5" style="stroke:#000d19;stroke-width:.5"/><circle cx="1032.5" cy="619.444" r="11" fill="#ADD1B2" style="stroke:#181818;stroke-width:1"/><path d="M1035.469 625.085q-.578.297-1.219.438-.64.156-1.344.156-2.5 0-3.828-1.64-1.312-1.657-1.312-4.782t1.312-4.781q1.328-1.657 3.828-1.657.703 0 1.344.157.656.156 1.219.453v2.719q-.625-.579-1.219-.844-.594-.281-1.219-.281-1.343 0-2.031 1.078-.687 1.062-.687 3.156t.687 3.172q.688 1.062 2.031 1.062.625 0 1.219-.265.594-.282 1.219-.86z"/><text x="1051.5" y="625.33" fill="#D9B8FF" font-family="Helvetica" font-size="17" textLength="93">gcp_bucket</text><rect width="227" height="310.758" x="522.5" y="7" fill="#3D176E" rx="2.5" ry="2.5" style="stroke:#000d19;stroke-width:.5"/><circle cx="591.25" cy="26.895" r="11" fill="#ADD1B2" style="stroke:#181818;stroke-width:1"/><path d="M594.219 32.535q-.578.297-1.219.438-.64.156-1.344.156-2.5 0-3.828-1.64-1.312-1.657-1.312-4.782t1.312-4.781q1.328-1.656 3.828-1.656.703 0 1.344.156.656.156 1.219.453v2.719q-.625-.578-1.219-.844-.594-.281-1.219-.281-1.343 0-2.031 1.078-.687 1.062-.687 3.156t.687 3.172q.688 1.062 2.031 1.062.625 0 1.219-.265.594-.281 1.219-.86z"/><text x="616.75" y="32.78" fill="#D9B8FF" font-family="Helvetica" font-size="17" textLength="71">resource</text><path d="M523.5 46.789h225" style="stroke:#000d19;stroke-width:.5"/><text x="533.5" y="68.784" fill="#D9B8FF" font-family="sans-serif" font-size="14" font-weight="bold" textLength="29">age</text><text x="562.5" y="68.784" fill="#D9B8FF" font-family="sans-serif" font-size="14" textLength="66">: duration</text><text x="533.5" y="95.081" fill="#D9B8FF" font-family="sans-serif" font-size="14" font-weight="bold" textLength="43">atime</text><text x="576.5" y="95.081" fill="#D9B8FF" font-family="sans-serif" font-size="14" textLength="70">: datetime</text><text x="533.5" y="121.378" fill="#D9B8FF" font-family="sans-serif" font-size="14" font-weight="bold" textLength="43">ctime</text><text x="576.5" y="121.378" fill="#D9B8FF" font-family="sans-serif" font-size="14" textLength="70">: datetime</text><text x="533.5" y="147.675" fill="#D9B8FF" font-family="sans-serif" font-size="14" font-weight="bold" textLength="14">id</text><text x="547.5" y="147.675" fill="#D9B8FF" font-family="sans-serif" font-size="14" textLength="48">: string</text><text x="533.5" y="173.972" fill="#D9B8FF" font-family="sans-serif" font-size="14" font-weight="bold" textLength="33">kind</text><text x="566.5" y="173.972" fill="#D9B8FF" font-family="sans-serif" font-size="14" textLength="48">: string</text><text x="533.5" y="200.269" fill="#D9B8FF" font-family="sans-serif" font-size="14" font-weight="bold" textLength="90">last_access</text><text x="623.5" y="200.269" fill="#D9B8FF" font-family="sans-serif" font-size="14" textLength="66">: duration</text><text x="533.5" y="226.565" fill="#D9B8FF" font-family="sans-serif" font-size="14" font-weight="bold" textLength="90">last_update</text><text x="623.5" y="226.565" fill="#D9B8FF" font-family="sans-serif" font-size="14" textLength="66">: duration</text><text x="533.5" y="252.862" fill="#D9B8FF" font-family="sans-serif" font-size="14" font-weight="bold" textLength="48">mtime</text><text x="581.5" y="252.862" fill="#D9B8FF" font-family="sans-serif" font-size="14" textLength="70">: datetime</text><text x="533.5" y="279.159" fill="#D9B8FF" font-family="sans-serif" font-size="14" font-weight="bold" textLength="43">name</text><text x="576.5" y="279.159" fill="#D9B8FF" font-family="sans-serif" font-size="14" textLength="48">: string</text><text x="533.5" y="305.456" fill="#D9B8FF" font-family="sans-serif" font-size="14" font-weight="bold" textLength="34">tags</text><text x="567.5" y="305.456" fill="#D9B8FF" font-family="sans-serif" font-size="14" textLength="171">: dictionary[string, string]</text><g fill="none"><path d="M569.389 479.065c-98.26 28.63-301.199 87.755-412.019 120.045" style="stroke:#ffaf37;stroke-width:2"/><path d="m586.67 474.03-18.96-.725 3.357 11.52z" style="stroke:#ffaf37;stroke-width:2"/></g><g fill="none"><path d="M586.292 487.849c-53.93 30.58-142.702 80.921-196.472 111.421" style="stroke:#ffaf37;stroke-width:2"/><path d="m601.95 478.97-18.618 3.66 5.92 10.438z" style="stroke:#ffaf37;stroke-width:2"/></g><path fill="none" d="M636 335.85v102.83m0-120.83-6 18h12zm0 178.96v102.41m0-120.41-6 18h12z" style="stroke:#ffaf37;stroke-width:2"/><g fill="none"><path d="M679.962 488.742c46.13 30.52 120.788 79.918 166.988 110.478" style="stroke:#ffaf37;stroke-width:2"/><path d="m664.95 478.81 11.701 14.936 6.622-10.008z" style="stroke:#ffaf37;stroke-width:2"/></g><path fill="none" d="M702.31 483.102c84.63 29.93 239.89 84.838 328.04 116.018M685.34 477.1l14.97 11.658 4-11.313z" style="stroke:#ffaf37;stroke-width:2"/></svg>
